packages/bezier-icons/icons/videocam.svg

<svg width="24" height="24" viewBox="0 0 24 24" fill="none" xmlns="http://www.w3.org/2000/svg">
<path fill-rule="evenodd" clip-rule="evenodd" d="M12.8385 5H6.16146C5.63433 4.99998 5.17954 4.99997 4.80497 5.03057C4.40963 5.06287 4.01641 5.13419 3.63803 5.32698C3.07354 5.6146 2.6146 6.07354 2.32698 6.63803C2.13419 7.01641 2.06287 7.40963 2.03057 7.80497C1.99997 8.17954 1.99998 8.63429 2 9.16142V14.8385C1.99998 15.3657 1.99997 15.8205 2.03057 16.195C2.06287 16.5904 2.13419 16.9836 2.32698 17.362C2.6146 17.9265 3.07354 18.3854 3.63803 18.673C4.01641 18.8658 4.40963 18.9371 4.80497 18.9694C5.17954 19 5.6343 19 6.16145 19H12.8385C13.3657 19 13.8205 19 14.195 18.9694C14.5904 18.9371 14.9836 18.8658 15.362 18.673C15.9265 18.3854 16.3854 17.9265 16.673 17.362C16.8658 16.9836 16.9371 16.5904 16.9694 16.195C16.9883 15.9641 16.9955 15.7026 16.9983 15.4125L19.8661 18.2804C20.6536 19.0678 22 18.5101 22 17.3965V6.60358C22 5.48996 20.6536 4.93224 19.8661 5.7197L16.9983 8.58752C16.9955 8.2974 16.9883 8.03594 16.9694 7.80497C16.9371 7.40963 16.8658 7.01641 16.673 6.63803C16.3854 6.07354 15.9265 5.6146 15.362 5.32698C14.9836 5.13419 14.5904 5.06287 14.195 5.03057C13.8205 4.99997 13.3657 4.99998 12.8385 5ZM17 11.4142V12.5858L20 15.5858V8.41424L17 11.4142ZM4.54601 7.109C4.59546 7.0838 4.69618 7.04613 4.96784 7.02393C5.25118 7.00078 5.62345 7 6.2 7H12.8C13.3766 7 13.7488 7.00078 14.0322 7.02393C14.3038 7.04613 14.4045 7.0838 14.454 7.109C14.6422 7.20487 14.7951 7.35785 14.891 7.54601C14.9162 7.59546 14.9539 7.69618 14.9761 7.96784C14.9992 8.25118 15 8.62345 15 9.2V14.8C15 15.3766 14.9992 15.7488 14.9761 16.0322C14.9539 16.3038 14.9162 16.4045 14.891 16.454C14.7951 16.6422 14.6422 16.7951 14.454 16.891C14.4045 16.9162 14.3038 16.9539 14.0322 16.9761C13.7488 16.9992 13.3766 17 12.8 17H6.2C5.62345 17 5.25118 16.9992 4.96784 16.9761C4.69618 16.9539 4.59546 16.9162 4.54601 16.891C4.35785 16.7951 4.20487 16.6422 4.109 16.454C4.0838 16.4045 4.04613 16.3038 4.02393 16.0322C4.00078 15.7488 4 15.3766 4 14.8V9.2C4 8.62345 4.00078 8.25118 4.02393 7.96784C4.04613 7.69618 4.0838 7.59546 4.109 7.54601C4.20487 7.35785 4.35785 7.20487 4.54601 7.109Z" fill="#313234"/>
</svg>

<svg xmlns="http://www.w3.org/2000/svg" width="24" height="24" fill="none" viewBox="0 0 24 24"><path fill="#313234" fill-rule="evenodd" d="M12.839 5H6.16c-.527 0-.981 0-1.356.03-.395.033-.789.104-1.167.297a3 3 0 0 0-1.311 1.311c-.193.378-.264.772-.296 1.167C2 8.18 2 8.635 2 9.161v5.678c0 .527 0 .981.03 1.356.033.395.104.789.297 1.167a3 3 0 0 0 1.311 1.311c.378.193.772.264 1.167.296.375.031.83.031 1.356.031h6.678c.527 0 .981 0 1.356-.03.395-.033.789-.104 1.167-.297a3 3 0 0 0 1.311-1.311c.193-.378.264-.772.296-1.167.02-.23.026-.492.03-.783l2.867 2.868c.788.788 2.134.23 2.134-.884V6.605c0-1.114-1.346-1.672-2.134-.884l-2.868 2.868q-.003-.436-.029-.783c-.032-.395-.103-.789-.296-1.167a3 3 0 0 0-1.311-1.311c-.378-.193-.772-.264-1.167-.296A18 18 0 0 0 12.838 5M17 11.414v1.172l3 3V8.414zM4.546 7.11c.05-.025.15-.063.422-.085C5.25 7 5.623 7 6.2 7h6.6c.577 0 .949 0 1.232.024.272.022.373.06.422.085a1 1 0 0 1 .437.437c.025.05.063.15.085.422C15 8.25 15 8.623 15 9.2v5.6c0 .577 0 .949-.024 1.232-.022.272-.06.372-.085.422a1 1 0 0 1-.437.437c-.05.025-.15.063-.422.085C13.75 17 13.377 17 12.8 17H6.2c-.577 0-.949 0-1.232-.024-.272-.022-.373-.06-.422-.085a1 1 0 0 1-.437-.437c-.025-.05-.063-.15-.085-.422C4 15.75 4 15.377 4 14.8V9.2c0-.577 0-.949.024-1.232.022-.272.06-.373.085-.422a1 1 0 0 1 .437-.437" clip-rule="evenodd"/></svg>
